build/documents/AccountDetailSolid.svg

<svg xmlns="http://www.w3.org/2000/svg" fill="none" viewBox="0 0 24 24" focusable="false"><path d="M0 0H24V24H0z"/><path fill="#74767B" fill-rule="evenodd" d="M7 3C5.34315 3 4 4.34315 4 6L4 18C4 19.6569 5.34315 21 7 21L17 21C18.6569 21 20 19.6569 20 18L20 9.2997C20 8.47047 19.6568 7.67823 19.0518 7.11108L15.5321 3.81139C14.9761 3.2901 14.2425 3 13.4803 3L7 3ZM18.4025 8.4025C18.623 8.62299 18.4668 8.99999 18.155 8.99999L15.3361 9C14.5982 9 14 8.36191 14 7.57479L14 4.84497C14 4.53316 14.377 4.377 14.5975 4.59748L18.4025 8.4025ZM12.125 8.46615C12.125 8.05194 11.7892 7.71615 11.375 7.71615C10.9608 7.71615 10.625 8.05194 10.625 8.46615C10.625 8.88036 10.9608 9.21615 11.375 9.21615C11.7892 9.21615 12.125 8.88036 12.125 8.46615ZM12.025 11.2199C12.025 10.8609 11.734 10.5699 11.375 10.5699C11.016 10.5699 10.725 10.8609 10.725 11.2199L10.725 15.0662C10.725 16.1431 11.598 17.0161 12.6749 17.0162L12.725 17.0162C13.084 17.0162 13.375 16.7252 13.375 16.3662C13.375 16.0072 13.084 15.7162 12.725 15.7162L12.675 15.7162C12.316 15.7162 12.025 15.4252 12.025 15.0662L12.025 11.2199Z"/></svg>

<svg xmlns="http://www.w3.org/2000/svg" fill="none" viewBox="0 0 24 24" focusable="false"><path fill="#74767B" fill-rule="evenodd" d="M7 3C5.34 3 4 4.34 4 6v12c0 1.65 1.34 3 3 3h10c1.65 0 3-1.35 3-3V9.29c0-.82-.35-1.62-.95-2.18l-3.52-3.3c-.56-.52-1.29-.81-2.05-.81zm11.4 5.4c.22.22.06.6-.25.6h-2.82C14.59 9 14 8.36 14 7.57V4.84c0-.31.37-.47.59-.25zm-6.28.06c0-.41-.34-.75-.75-.75s-.75.34-.75.75a.749.749 0 1 0 1.5 0m-.1 2.75c0-.35-.29-.65-.65-.65s-.65.3-.65.65v3.85c0 1.08.87 1.95 1.95 1.95h.05c.36 0 .65-.29.65-.65s-.29-.65-.65-.65h-.05c-.36 0-.65-.29-.65-.65z"/></svg>
